X:5
T:Untitled
T:from James E Frill's Musick Book  p. 5 bottom
N:Same as p 13 bottom
Z:Sarah Gowan
R:Jig
M:6/8
K:G
AB|cBc eag|ede ABc|BAB GAB|dBG G2g|
bag efg|dBG g2 B|cBA B2d|ede A:|
|:cd|ece ece| ece ABc|dBd dBd| dBd G2B|
cBA eag| ede g2 B|cBA B2d |1ede A:|2ede A3|]
